!!!!SEGMENT: pl-lzu--m-15111--001-011_noskowski-zygmunt--spiewnik-dla-dzieci-op-34-11-sanna.krn
!!!cenid: 18xx:4708
!!!COM: Noskowski, Zygmunt
!!!COM-rismID: pe106604
!!!CDT: 1846/05/02-1909/07/23
!!!CNT: Polish
!!!GTL: Śpiewnik dla dzieci, op. 34
!!!OTL: 11. Sanna
!!!OMV: 011
!!!PDT: 1890
!!!AGN: Secular; Song; Children
!!!YEC: Copyright 2022 Narodowy Instytut Fryderyka Chopina (https://polishscores.org)
!!!YEM: License CC-BY-4.0 (https://creativecommons.org/licenses/by/4.0)
!!!SMS-siglum: PL-LŹu
!!!SMS-shelfmark: M 15111
!!!SMS-variant:
!!!SMS-altvar:
!!!SMS-shelfwork: 001-011 G
!!!NIFC-rismSourceID: 1001234040
!!!NIFC-rismChildID: 1001234040
!!!NIFC-islandoraID: pl-lzu:5455
!!!URL-pdf-islandora: https://repozytorium.nifc.pl/islandora/object/pl-lzu%3A5455/datastream/PDF/view
!!!URL-scan: https://polish.musicsources.pl/pl/lokalizacje/galeria/druki-muzyczne/23228/17 @EN{Scan on Polish Music Sources Website} @PL{Skany w portalu Dziedzictwo Muzyki Polskiej w otwartym dostępie}
!!!IIIF:
!!!ONB-nifc:
!!!AIN: 1 piano 1 vox
!!!key: A-
!!!OMD: Moderato.
**kern	**kern	**dynam	**kern	**text	**text	**dynam
*part2	*part2	*part2	*part1	*part1	*part1	*part1
*staff3	*staff2	*staff2,3	*staff1	*staff1	*staff1	*staff1
*I"[Piano]	*I"[Piano]	*	*I"[Voice]	*	*	*
*I'pf	*I'pf	*	*I'V	*	*	*
*Ipiano	*Ipiano	*	*Ivox	*	*	*
*ICklav	*ICklav	*	*ICvox	*	*	*
*IGacomp	*IGacomp	*	*IGsolo	*	*	*
*>[A,B,B,C]	*>[A,B,B,C]	*>[A,B,B,C]	*>[A,B,B,C]	*>[A,B,B,C]	*>[A,B,B,C]	*>[A,B,B,C]
*>A	*>A	*>A	*>A	*>A	*>A	*>A
*clefF4	*clefG2	*	*clefG2	*	*	*
*k[b-e-a-d-]	*k[b-e-a-d-]	*	*k[b-e-a-d-]	*	*	*
*A-:	*A-:	*	*A-:	*	*	*
*M2/4	*M2/4	*	*M2/4	*	*	*
=1	=1	=1	=1	=1	=1	=1
*ped	*	*	*	*	*	*
!	!LO:TX:a:i:rj:t=Umiarkowanie.	!LO:DY:rj	!	!	!	!
2r	8ee-\L	p	2r	.	.	.
.	8ee-\	.	.	.	.	.
.	8ee-\	.	.	.	.	.
.	8ee-\J	.	.	.	.	.
=2!|:	=2!|:	=2!|:	=2!|:	=2!|:	=2!|:	=2!|:
*>B	*>B	*>B	*>B	*>B	*>B	*>B
*	*	*	*	*v:1	*v:2	*
!	!	!	!	!	!	!LO:DY:rj
2r	8ee-\L	.	4r	.	.	p
.	8ee-\J	.	.	.	.	.
.	8cc\L 8ee-	.	8cc\	Ja-	Ja-	.
.	8a-\J 8ee-	.	8a-/	-sne	-sne	.
*Xped	*	*	*	*	*	*
=3	=3	=3	=3	=3	=3	=3
*ped	*	*	*	*	*	*
4AA-/	8cc\L 8ee-	.	8cc\	słon-	słon-	.
.	8b-\J 8ee-	.	8b-\	-ko,	-ko,	.
4E-\ 4d-	8e-\L 8ee-	.	8e-/	mroź-	mroź-	.
*Xped	*	*	*	*	*	*
.	8g\J 8ee-	.	8g/	-ny	-ny	.
=4	=4	=4	=4	=4	=4	=4
*ped	*	*	*	*	*	*
4AA-/	8a-\L 8ee-	.	4a-/	dzień,	dzień,	.
.	8ee-\J	.	.	.	.	.
4E-\ 4c	8b-\L 8ee-	.	8b-\	A	A	.
*Xped	*	*	*	*	*	*
.	8cc\J 8ee-	.	8cc\	sa-	sa-	.
!!LO:PB:g=original
=5	=5	=5	=5	=5	=5	=5
*ped	*	*	*	*v:1	*v:2	*
4AA-/	8dd-\L 8ee-	.	8dd-\	-necz-	-necz-	.
.	8b-\J 8ee-	.	8b-\	-ki	-ki	.
4E-\ 4d-	8ee-\L	.	8ee-\	deń,	deń,	.
*Xped	*	*	*	*	*	*
.	.	.	.	.	.	.
.	8ee-\J	.	8ee-\	deń,	deń,	.
=6	=6	=6	=6	=6	=6	=6
*ped	*	*	*	*	*	*
4AA-/	8ee-\L	.	4ee-,\	deń.	deń.	.
.	8ee-\	.	.	.	.	.
4E-\ 4c	8cc\ 8ee-	.	8cc\	A	A	.
*Xped	*	*	*	*	*	*
.	.	.	.	.	.	.
.	8ee-\J	.	8ee-\	ko-	nasz	.
=7	=7	=7	=7	=7	=7	=7
*ped	*	*	*	*	*	*
4EE-/	8dd-\L 8ee-	.	4dd-\	-ni-	Ja-	.
.	8ee-\	.	.	.	.	.
4E-\ 4d-	8cc\ 8ee-	.	8cc\	-ki	-nek	.
*Xped	*	*	*	*	*	*
.	.	.	.	.	.	.
.	8b-\J 8ee-	.	8b-\	po	nie	.
=8	=8	=8	=8	=8	=8	=8
*ped	*	*	*	*	*	*
4AA-/	8a-\L 8ee-	.	4a-/	śnie-	w so-	.
.	8ee-\	.	.	.	.	.
4E-\ 4c	8f\ 8ee-	.	8f,/	-gu	-sie,	.
*Xped	*	*	*	*	*	*
.	.	.	.	.	.	.
.	8g\J 8ee-	.	8g/	Za-	Bo	.
!!LO:LB:g=original
=9	=9	=9	=9	=9	=9	=9
*ped	*	*	*	*v:1	*v:2	*
4AA-/	16e-\LL 16ee-	.	(16e-/LL	-grza-	gi-	.
.	16f\	.	16f/JJ)	.	.	.
.	16g\ 16dd-	.	(16g/LL	-ły	-la	.
.	16a-\JJ	.	16a-/JJ)	.	.	.
4E-\ 4d-	8b-\L 8ee-	.	8b-\	się	ma	.
*Xped	*	*	*	*	*	*
.	16dd-\L 16ee-	.	(16dd-\LL	wśród	na	.
.	16cc\JJ	.	16cc\JJ)	.	.	.
=10	=10	=10	=10	=10	=10	=10
*ped	*	*	*	*	*	*
4AA-/	8b-\L 8ee-	.	4b-/	bie-	no-	.
.	8ee-\	.	.	.	.	.
8E-\ 8c	8a-\ 8ee-	.	8a-/	-gu.	-sie.	.
*Xped	*	*	*	*	*	*
8r	8ee-\J	.	8r	.	.	.
=11	=11	=11	=11	=11	=11	=11
*ped	*	*	*	*	*	*
2r	8ee-\L	.	2r	.	.	.
.	8ee-\	.	.	.	.	.
.	8ee-\	.	.	.	.	.
.	8ee-\J	.	.	.	.	.
=12:|!	=12:|!	=12:|!	=12:|!	=12:|!	=12:|!	=12:|!
*>C	*>C	*>C	*>C	*>C	*>C	*>C
2A-;\ 2e-	2cc;\ 2aa-	.	2r;	.	.	.
==	==	==	==	==	==	==
*-	*-	*-	*-	*-	*-	*-
!!!system-decoration: p1{p2}
!!!RDF**kern: > = above
!!!RDF**kern: < = below
!!!ENC: Andrzej Gręziak
!!!END: 2025-03-04
!!!ENC: Marta Lawrence
!!!END: 2025-03-20
